X: 32533
T: Planxty Dermot Grogan
R: jig
M: 6/8
K: Dmajor
|:A DE|"D"F3 E ED|"G"B3 A Bd|"A"e3 f de|"Bm"fe ed BA|"G"B3 A AB|"D"AF DF ED|"A"E2 "Bm"F2 "G"D2|"A"E3 A BD|
"A"E3 F DE|"D"FE ED FA|"G"BA A/B/d "A"ea|"Bm"f2 ed "G"BA|"G"B3 A AB|"D"AF DF ED|"A"EF "G"D2 "G"D2|"D"D3:|
|:A Bd|"A"e3 f de|"Bm"fe ed e/f/a|"G"ba af ab|"D"af df ed|"A"e3f de|"Bm"fe ed BA|"G"BA A/B/d AF|"D"D3 A BD|
"A"E3 F DE|"D"FE ED FA|"G"BA A/B/d "A"ea|"Bm"f2 ed BA|"G"B3 A AB|"D"AF DF ED|"A"EF "G"D2 D2|"D"D3:|

